X: 2089
T: Atherfield
R: jig
M: 6/8
K: Eminor
E3 GFG|AGA BdB|edB BAG|AGB AGD|
EDE G2B|AGA BdB|edB AGB|EEE E2E:|
e3 d2e|dBG A3|AGA BGG|AGB AGD|
EDE G2B|AGA BdB|edB AGB|EEE E2E:|

